mobile/apps/auth/assets/custom-icons/icons/github.svg

<svg xmlns="http://www.w3.org/2000/svg" fill="none" viewBox="0 0 500 500"><path fill="#fff" fill-rule="evenodd" d="M250.207 5C111.849 5 0 117.52 0 256.723c0 111.273 71.665 205.463 171.084 238.799 12.43 2.506 16.983-5.416 16.983-12.08 0-5.836-.409-25.839-.409-46.681-69.602 15.006-84.096-30.007-84.096-30.007-11.185-29.173-27.758-36.671-27.758-36.671-22.78-15.421 1.659-15.421 1.659-15.421 25.27 1.667 38.529 25.839 38.529 25.839 22.366 38.339 58.406 27.506 72.905 20.837 2.069-16.254 8.702-27.506 15.744-33.756-55.513-5.836-113.918-27.507-113.918-124.197 0-27.506 9.935-50.011 25.679-67.513-2.484-6.25-11.185-32.093 2.489-66.683 0 0 21.126-6.67 68.762 25.839a240.795 240.795 0 0 1 62.554-8.337c21.126 0 42.662 2.92 62.549 8.337 47.64-32.509 68.767-25.839 68.767-25.839 13.674 34.59 4.968 60.433 2.484 66.683 16.158 17.502 25.684 40.007 25.684 67.513 0 96.69-58.406 117.941-114.333 124.197 9.116 7.917 16.983 22.918 16.983 46.675 0 33.756-.41 60.848-.41 69.18 0 6.669 4.559 14.591 16.983 12.09 99.419-33.347 171.085-127.531 171.085-238.804C500.409 117.52 388.15 5 250.207 5Z" clip-rule="evenodd" style="mix-blend-mode:difference"/></svg>

<svg width="500" height="500" viewBox="0 0 500 500" fill="none" xmlns="http://www.w3.org/2000/svg">
<g style="mix-blend-mode:difference">
<path fill-rule="evenodd" clip-rule="evenodd" d="M250.207 5C111.849 5 0 117.52 0 256.723C0 367.996 71.6655 462.186 171.084 495.522C183.514 498.028 188.067 490.106 188.067 483.442C188.067 477.606 187.658 457.603 187.658 436.761C118.056 451.767 103.562 406.754 103.562 406.754C92.3769 377.581 75.8036 370.083 75.8036 370.083C53.0231 354.662 77.463 354.662 77.463 354.662C102.733 356.329 115.992 380.501 115.992 380.501C138.358 418.84 174.398 408.007 188.897 401.338C190.966 385.084 197.599 373.832 204.641 367.582C149.128 361.746 90.7226 340.075 90.7226 243.385C90.7226 215.879 100.658 193.374 116.402 175.872C113.918 169.622 105.217 143.779 118.891 109.189C118.891 109.189 140.017 102.519 187.653 135.028C208.047 129.517 229.079 126.714 250.207 126.691C271.333 126.691 292.869 129.611 312.756 135.028C360.396 102.519 381.523 109.189 381.523 109.189C395.197 143.779 386.491 169.622 384.007 175.872C400.165 193.374 409.691 215.879 409.691 243.385C409.691 340.075 351.285 361.326 295.358 367.582C304.474 375.499 312.341 390.5 312.341 414.257C312.341 448.013 311.931 475.105 311.931 483.437C311.931 490.106 316.49 498.028 328.914 495.527C428.333 462.18 499.999 367.996 499.999 256.723C500.409 117.52 388.15 5 250.207 5Z" fill="white"/>
</g>
</svg>
